public/fullserverbg.svg

<svg width="1440" height="1006" viewBox="0 0 1440 1006" fill="none" xmlns="http://www.w3.org/2000/svg">
<path d="M41.9987 214.129L-86 121.305L41.9987 37L170 121.305L41.9987 214.129Z" fill="#F2F5FC"/>
<path d="M170 121.303V823.151L41.9149 949.168L41 211.932L170 121.303Z" fill="url(#paint0_linear_0_1)"/>
<path d="M-86 121.303L43 211.85V949.168L-86 788.628" fill="url(#paint1_linear_0_1)"/>
<path d="M747.408 242.025L566.999 187.163L747.411 124.145L927.82 187.163L747.408 242.025Z" fill="#F2F5FC"/>
<path d="M1100 378.945L936 322.517L1100 257.701L1264 322.517L1100 378.945Z" fill="#F2F6FE" fill-opacity="0.79"/>
<path d="M1382 270.487L1240 177.912L1382 93.832L1524 177.912L1382 270.487Z" fill="#F2F5FC"/>
<path d="M378.408 375.582L197.999 320.72L378.411 257.701L558.82 320.72L378.408 375.582Z" fill="#F2F6FE" fill-opacity="0.79"/>
<path d="M927.82 186.807V602.861L746.867 677.563L745.575 240.532L927.82 186.807Z" fill="url(#paint2_linear_0_1)"/>
<path d="M1526 178.135V879.983L1384.01 1006L1383 268.764L1526 178.135Z" fill="url(#paint3_linear_0_1)"/>
<path d="M567.001 186.807L749.246 240.483V677.563L567.001 582.396" fill="url(#paint4_linear_0_1)"/>
<path d="M1240 177.662L1383 268.21V1005.53L1240 844.987" fill="url(#paint5_linear_0_1)"/>
<path d="M891.518 193.036C891.518 153.664 863.779 105.62 829.685 85.9355C813.769 76.7455 799.245 74.6846 787.708 80.6736L785.484 81.9586L762.784 95.9295L739.684 55.0425L739.521 54.7535C727.846 34.5535 712.329 18.1805 695.829 8.65355C677.929 -1.68245 662.429 -2.57545 651.129 4.98055L650.488 5.38855L634 14.9675L634.958 32.4075H634.971C634.314 36.3561 633.99 40.3527 634 44.3555C634 83.7245 661.738 131.769 695.833 151.456C712.349 160.991 727.876 162.531 739.557 155.792L739.714 155.698L762.79 141.491L786.843 184.068L787.299 184.844C798.81 204.015 813.869 219.604 829.691 228.744C838.83 234.019 847.505 236.708 855.318 237.092L858.218 241.798L871.03 234.252C872.476 233.644 873.845 232.866 875.108 231.937L875.972 231.343C885.63 224.312 891.518 211.157 891.518 193.036ZM720.129 122.189C713.635 125.925 705.005 125.067 695.829 119.77C676.865 108.821 661.429 82.0966 661.429 60.1956C661.429 38.2946 676.861 29.3875 695.829 40.3365C705.003 45.6365 713.629 54.7365 720.121 65.9635L743.69 107.683L720.129 122.189ZM829.685 197.051C820.938 192.002 812.622 183.406 806.232 172.838L781.877 129.738L806.103 114.827C812.503 111.547 820.872 112.537 829.685 117.627C848.649 128.579 864.078 155.303 864.078 177.204C864.078 199.105 848.649 208 829.685 197.051Z" fill="url(#paint6_linear_0_1)"/>
<path d="M812.691 95.8417C796.775 86.6517 781.654 84.8897 770.114 90.8807L769.706 91.1137L745.788 105.836L722.688 64.9487L722.525 64.6597C710.85 44.4597 695.333 28.0837 678.833 18.5597C644.739 -1.12332 617 14.8897 617 54.2597C617 93.6297 644.738 141.673 678.833 161.36C695.349 170.895 710.876 172.435 722.553 165.692L722.713 165.598L746.22 152.67L769.843 193.97L770.299 194.746C781.81 213.917 796.869 229.506 812.691 238.639C846.785 258.325 874.524 242.312 874.524 202.939C874.524 163.566 846.785 115.525 812.691 95.8417ZM703.139 132.095C696.645 135.831 688.015 134.973 678.839 129.676C659.875 118.727 644.439 92.0027 644.439 70.1017C644.439 48.2007 659.872 39.2937 678.839 50.2427C688.013 55.5427 696.639 64.6427 703.131 75.8697L726.7 117.589L703.139 132.095ZM812.695 206.957C803.945 201.912 795.629 193.312 789.239 182.743L764.884 141.621L789.109 126.712C792.772 124.789 796.873 123.853 801.008 123.996C805.143 124.139 809.169 125.355 812.691 127.526C831.655 138.478 847.084 165.202 847.084 187.103C847.084 209.004 831.655 217.906 812.691 206.957H812.695Z" fill="#333C5E"/>
<defs>
<linearGradient id="paint0_linear_0_1" x1="99.6813" y1="1064.73" x2="508.674" y2="258.088" gradientUnits="userSpaceOnUse">
<stop offset="0.164" stop-color="white" stop-opacity="0"/>
<stop offset="0.684" stop-color="#EDF0F7"/>
</linearGradient>
<linearGradient id="paint1_linear_0_1" x1="-65.36" y1="873.228" x2="-358.164" y2="701.554" gradientUnits="userSpaceOnUse">
<stop stop-color="white" stop-opacity="0"/>
<stop offset="0.864" stop-color="#E7ECFD" stop-opacity="0.774"/>
<stop offset="1" stop-color="#E0E7FD"/>
</linearGradient>
<linearGradient id="paint2_linear_0_1" x1="828.477" y1="746.071" x2="950.826" y2="170.993" gradientUnits="userSpaceOnUse">
<stop offset="0.314" stop-color="white" stop-opacity="0"/>
<stop offset="1" stop-color="white"/>
</linearGradient>
<linearGradient id="paint3_linear_0_1" x1="1448.05" y1="1121.57" x2="1831.61" y2="282.984" gradientUnits="userSpaceOnUse">
<stop stop-color="white" stop-opacity="0"/>
<stop offset="1" stop-color="#F2F5FC"/>
</linearGradient>
<linearGradient id="paint4_linear_0_1" x1="596.16" y1="632.546" x2="407.889" y2="369.475" gradientUnits="userSpaceOnUse">
<stop offset="0.00399963" stop-color="white" stop-opacity="0"/>
<stop offset="0.379" stop-color="#F2F5FC" stop-opacity="0"/>
<stop offset="1" stop-color="#E7ECFD" stop-opacity="0.774"/>
</linearGradient>
<linearGradient id="paint5_linear_0_1" x1="1262.88" y1="929.588" x2="956.249" y2="730.295" gradientUnits="userSpaceOnUse">
<stop stop-color="white" stop-opacity="0"/>
<stop offset="0.864" stop-color="#E7ECFD" stop-opacity="0.774"/>
<stop offset="1" stop-color="#F2F5FC"/>
</linearGradient>
<linearGradient id="paint6_linear_0_1" x1="635.03" y1="7.01023" x2="737.566" y2="108.725" gradientUnits="userSpaceOnUse">
<stop stop-color="#5E98F7"/>
<stop offset="1" stop-color="#4670BA"/>
</linearGradient>
</defs>
</svg>

<svg xmlns="http://www.w3.org/2000/svg" width="1440" height="1006" fill="none" viewBox="0 0 1440 1006"><path fill="#f2f5fc" d="M41.999 214.129-86 121.305 41.999 37 170 121.305z"/><path fill="url(#a)" d="M170 121.303v701.848L41.915 949.168 41 211.932z"/><path fill="url(#b)" d="M-86 121.303 43 211.85v737.318l-129-160.54"/><path fill="#f2f5fc" d="m747.408 242.025-180.409-54.862 180.412-63.018 180.409 63.018z"/><path fill="#f2f6fe" fill-opacity=".79" d="m1100 378.945-164-56.428 164-64.816 164 64.816z"/><path fill="#f2f5fc" d="m1382 270.487-142-92.575 142-84.08 142 84.08z"/><path fill="#f2f6fe" fill-opacity=".79" d="M378.408 375.582 197.999 320.72l180.412-63.019L558.82 320.72z"/><path fill="url(#c)" d="M927.82 186.807v416.054l-180.953 74.702-1.292-437.031z"/><path fill="url(#d)" d="M1526 178.135v701.848L1384.01 1006 1383 268.764z"/><path fill="url(#e)" d="m567.001 186.807 182.245 53.676v437.08l-182.245-95.167"/><path fill="url(#f)" d="m1240 177.662 143 90.548v737.32l-143-160.543"/><path fill="url(#g)" d="M891.518 193.036c0-39.372-27.739-87.416-61.833-107.1-15.916-9.19-30.44-11.251-41.977-5.262l-2.224 1.285-22.7 13.97-23.1-40.887-.163-.288c-11.675-20.2-27.192-36.573-43.692-46.1-17.9-10.336-33.4-11.23-44.7-3.673l-.641.408L634 14.967l.958 17.44h.013A71.7 71.7 0 0 0 634 44.357c0 39.369 27.738 87.413 61.833 107.1 16.516 9.535 32.043 11.075 43.724 4.336l.157-.094 23.076-14.207 24.053 42.577.456.776c11.511 19.171 26.57 34.76 42.392 43.9 9.139 5.275 17.814 7.964 25.627 8.348l2.9 4.706 12.812-7.546a20 20 0 0 0 4.078-2.315l.864-.594c9.658-7.031 15.546-20.186 15.546-38.307m-171.389-70.847c-6.494 3.736-15.124 2.878-24.3-2.419-18.964-10.949-34.4-37.673-34.4-59.574s15.432-30.808 34.4-19.86c9.174 5.3 17.8 14.4 24.292 25.627l23.569 41.72zm109.556 74.862c-8.747-5.049-17.063-13.645-23.453-24.213l-24.355-43.1 24.226-14.911c6.4-3.28 14.769-2.29 23.582 2.8 18.964 10.952 34.393 37.676 34.393 59.577S848.649 208 829.685 197.051"/><path fill="#333c5e" d="M812.691 95.842c-15.916-9.19-31.037-10.952-42.577-4.961l-.408.233-23.918 14.722-23.1-40.887-.163-.29c-11.675-20.2-27.192-36.575-43.692-46.1C644.739-1.122 617 14.89 617 54.26s27.738 87.414 61.833 107.101c16.516 9.535 32.043 11.075 43.72 4.332l.16-.094 23.507-12.928 23.623 41.3.456.776c11.511 19.171 26.57 34.76 42.392 43.893 34.094 19.686 61.833 3.673 61.833-35.7s-27.739-87.414-61.833-107.097m-109.552 36.253c-6.494 3.736-15.124 2.878-24.3-2.419-18.964-10.949-34.4-37.673-34.4-59.574s15.433-30.808 34.4-19.86c9.174 5.3 17.8 14.4 24.292 25.628l23.569 41.719zm109.556 74.862c-8.75-5.045-17.066-13.645-23.456-24.214l-24.355-41.122 24.225-14.909a23.83 23.83 0 0 1 23.582.814c18.964 10.952 34.393 37.676 34.393 59.577s-15.429 30.803-34.393 19.854z"/><defs><linearGradient id="a" x1="99.681" x2="508.674" y1="1064.73" y2="258.088" gradientUnits="userSpaceOnUse"><stop offset=".164" stop-color="#fff" stop-opacity="0"/><stop offset=".684" stop-color="#edf0f7"/></linearGradient><linearGradient id="b" x1="-65.36" x2="-358.164" y1="873.228" y2="701.554" gradientUnits="userSpaceOnUse"><stop stop-color="#fff" stop-opacity="0"/><stop offset=".864" stop-color="#e7ecfd" stop-opacity=".774"/><stop offset="1" stop-color="#e0e7fd"/></linearGradient><linearGradient id="c" x1="828.477" x2="950.826" y1="746.071" y2="170.993" gradientUnits="userSpaceOnUse"><stop offset=".314" stop-color="#fff" stop-opacity="0"/><stop offset="1" stop-color="#fff"/></linearGradient><linearGradient id="d" x1="1448.05" x2="1831.61" y1="1121.57" y2="282.984" gradientUnits="userSpaceOnUse"><stop stop-color="#fff" stop-opacity="0"/><stop offset="1" stop-color="#f2f5fc"/></linearGradient><linearGradient id="e" x1="596.16" x2="407.889" y1="632.546" y2="369.475" gradientUnits="userSpaceOnUse"><stop offset=".004" stop-color="#fff" stop-opacity="0"/><stop offset=".379" stop-color="#f2f5fc" stop-opacity="0"/><stop offset="1" stop-color="#e7ecfd" stop-opacity=".774"/></linearGradient><linearGradient id="f" x1="1262.88" x2="956.249" y1="929.588" y2="730.295" gradientUnits="userSpaceOnUse"><stop stop-color="#fff" stop-opacity="0"/><stop offset=".864" stop-color="#e7ecfd" stop-opacity=".774"/><stop offset="1" stop-color="#f2f5fc"/></linearGradient><linearGradient id="g" x1="635.03" x2="737.566" y1="7.01" y2="108.725" gradientUnits="userSpaceOnUse"><stop stop-color="#5e98f7"/><stop offset="1" stop-color="#4670ba"/></linearGradient></defs></svg>
